icon-themes/breeze_svg/cmd/sc_symbolshapes.cloud.svg

<svg viewBox="0 0 16 16" xmlns="http://www.w3.org/2000/svg">/&gt;<path d="m8 3c-1.0795436 0-1.9849545.7312329-2.203125 1.6972656-.3514239-.1663105-.7528321-.2695312-1.171875-.2695312-1.4497469 0-2.625 1.1192881-2.625 2.5 0 .862945.4501833 1.626904 1.1484375 2.0761718-.6815669.3682343-1.1484375 1.0539208-1.1484375 1.8535158 0 1.183467 1.0073598 2.142578 2.25 2.142578.5792897 0 1.1011922-.216098 1.5-.558594.3988067.342495.9207122.558594 1.5.558594 1.0795406 0 1.9849553-.731236 2.203125-1.697266.3514236.166311.752832.269532 1.171875.269532 1.449747 0 2.625-1.119288 2.625-2.5000004 0-.4926835-.163512-.9527116-.421875-1.3398437.696342-.3642829 1.171875-1.0649286 1.171875-1.875 0-1.1834673-1.00736-2.1425781-2.25-2.1425781-.656955 0-1.252715.2637626-1.664062.6914062-.3191861-.8136273-1.1203029-1.40625-2.085938-1.40625z" fill="#4d4d4d"/></svg>

<svg xmlns="http://www.w3.org/2000/svg" viewBox="0 0 16 16">
     />
 <path 
     style="fill:#4d4d4d" 
     d="M 8 3 C 6.9204564 3 6.0150455 3.7312329 5.796875 4.6972656 C 5.4454511 4.5309551 5.0440429 4.4277344 4.625 4.4277344 C 3.1752531 4.4277344 2 5.5470225 2 6.9277344 C 2 7.7906794 2.4501833 8.5546384 3.1484375 9.0039062 C 2.4668706 9.3721405 2 10.057827 2 10.857422 C 2 12.040889 3.0073598 13 4.25 13 C 4.8292897 13 5.3511922 12.783902 5.75 12.441406 C 6.1488067 12.783901 6.6707122 13 7.25 13 C 8.3295406 13 9.2349553 12.268764 9.453125 11.302734 C 9.8045486 11.469045 10.205957 11.572266 10.625 11.572266 C 12.074747 11.572266 13.25 10.452978 13.25 9.0722656 C 13.25 8.5795821 13.086488 8.119554 12.828125 7.7324219 C 13.524467 7.368139 14 6.6674933 14 5.8574219 C 14 4.6739546 12.99264 3.7148438 11.75 3.7148438 C 11.093045 3.7148438 10.497285 3.9786064 10.085938 4.40625 C 9.7667519 3.5926227 8.9656351 3 8 3 z "
     />
 </svg>
